X:12073
T:Norwegian Waltz
R:Waltz
M:3/4
L:1/8
K:G
dc|B2D2G2|B3 cdB|c2E2G2|c6|
D2F2A2|d2e2f2|g3 fga|g4:|
|:ga|b2g2g2|g4AB|c2e2e2|e6|
d2f2a2|d2f2a2|d3 edc|B4ga|
b2g2g2|g4AB|c2e2e2|e6|
d2f2a2|d2f2a2|d2e2f2|g4:|


